X:7089
T:The Miller of Hirn
O:England
M:C
L:1/16
S:Alasdair Fraser
K:D
A,2|D3E F3B AF3 D4|B,3E GFED CA,3 A,2C2|
D3E F3B AF3 D4|B,3D CA3 FD3 D4:|
A3G F3d BG3 G4|B3A ^Ge3 cA3 A3B|
A3G -F3A -B3A -G3(B|c3)B -Aa3 fd3 d4|
A3G F3d BG3 G4|B3A ^Ge3 cA3 A3c|
L:1/8
(3dAB (3cde (3fde (3fga|(3bag (3fed (3cBA (3GFE||


